svgs/sharp-solid/folder-grid.svg

<svg xmlns="http://www.w3.org/2000/svg" viewBox="0 0 512 512"><!--! Font Awesome Pro 6.6.0 by @fontawesome - https://fontawesome.com License - https://fontawesome.com/license (Commercial License) Copyright 2024 Fonticons, Inc. --><path d="M512 480L0 480 0 32l224 0 48 64 240 0 0 384zM176 240l-96 0 0 96 96 0 0-96zm128 0l-96 0 0 96 96 0 0-96zm32 0l0 96 96 0 0-96-96 0z"/></svg>

<svg xmlns="http://www.w3.org/2000/svg" viewBox="0 0 512 512"><!--! Font Awesome Pro 6.4.0 by @fontawesome - https://fontawesome.com License - https://fontawesome.com/license (Commercial License) Copyright 2023 Fonticons, Inc. --><path d="M512 480H0V32H224l48 64H512V480zM176 240H80v96h96V240zm128 0H208v96h96V240zm32 0v96h96V240H336z"/></svg>
